X:1
T:Title
%%score ( 1 2 ) ( 3 4 )
L:1/8
M:4/4
K:Bb
V:1 treble nm="Choir Aahs, Staff"
V:2 treble 
V:3 bass nm="Choir Aahs, Staff-1"
V:4 bass 
V:1
 [B,D]2 [DG]2 [D^F]2 [DG]2 | [DA]2 [Dc]2 [DB]2 [DA]2- | [DA]4 [^FA]2 [GB]2 | %3
w: By~Bartholomaeus~Gesius~(1555\-1613) * * *|||
 [Gc]2 [^Fd]2 [DB]2 [Cc]2 | [CA]2 [DB]6 | [Fd]2 [Fc]2 [DB]2 [FA]2 | [EG]2 [DF]2 [CE]2 [A,D]2- | %7
w: ||||
 [A,D]4 [^FA]2 [GB]2 | c2 z2 z4 | [^FA]2 [DG]6 |] %10
w: |||
V:2
 x8 | x8 | x8 | x8 | x8 | x8 | x8 | x8 | G^F [Gd]2 [EG]2 [GB]2 | x8 |] %10
V:3
 [G,,G,]2 [B,,G,]2 [D,A,]2 [B,,G,]2 | [A,,^F,]2 [^F,,A,]2 [G,,G,]2 [D,F,]2- | %2
 [D,F,]4 [D,D]2 [G,D]2 | [E,C]2 [D,A,]2 [G,B,]2 [E,G,]2 | F,2 [B,,F,]6 | %5
 [B,,B,]2 [F,A,]2 [G,B,]2 [D,D]2 | [E,B,]2 [B,,B,]2 [C,G,]2 [D,^F,]2- | [D,F,]4 [D,D]2 [B,,D]2 | %8
 z4 z2 D2 | [D,D]2 [G,,B,]6 |] %10
V:4
 x8 | x8 | x8 | x8 | x8 | x8 | x8 | x8 | [A,,C]2 [G,,B,]2 [C,C]2 B,,C, | x8 |] %10

